!!!COM: Anon.
!!!OTL: Song When Organizing a War Party
!!!MPN: Masukatias [Old Dog]
!!!ODT: <1918//
!!!MLC: Fort Berthold Reservation, North Dakota, United States of America
!! Song was recorded during either the summer of 1912, 1915, or 1918.
!!!AGN: monody
!!!AST: Mandan and Hidatsa War Songs
!!!AMT: irregular
!!!RWG: Transcribed pitches, durations, and meters are only approximate.
!! Drum not recorded.
**kern
*ICvox
*Imale
*clefF4
*k[b-e-a-d-g-]
*M2/4
*MM92
16f
=1
16f
16f
8f
16f
16f
8f
*M3/4
=2
16d-
16d-
8d-
16d-
16d-
8d-
16d-
16d-
16d-
16d-
*M2/4
=3
4B-
8B-
8f
=4
16f
16f
8f
16f
16f
8f
*M3/4
=5
16d-
16d-
8d-
16d-
16d-
8d-
16d-
16d-
16d-
16d-
*M2/4
=6
4.B-
8e-
*M3/4
=7
16d-
16d-
8d-
16d-
16d-
8d-
8e-
8d-
*M2/4
=8
8B-
8B-
16d-
16B-
8B-
*M3/4
=9
4B-
4.F
8d-
=10
16d-
16d-
8d-
4B-
16d-
16B-
8B-
*M2/4
=11
8F
8F
[4F
=12
2F]
=13
8B-
8d-
4d-
=14
16f
16f
8f
16d-
16d-
8d-
=15
16d-
16d-
8d-
16d-
16d-
8d-
=16
2B-
=17
8d-
8d-
8d-
8d-
=18
8B-
8d-
8B-
8B-
=19
4B-
16d-
16B-
8B-
*M3/4
=20
4B-
4.F
8d-
*M2/4
=21
16d-
16d-
8d-
8B-
8B-
=22
8B-
8B-
8F
8F
=23
4F
4F
==
*-
!!!CNT: Hidatsa
!!!TXO: Hidatsa
!!!OCY: United States
!!!OCL: Frances Densmore
!!!YOR: Frances Densmore, "Mandan and Hidatsa Music",
!!!YOR: Bulletin 80, page 146, No. 77
!!!PPR: Smithsonian Institution, Bureau of American Ethnology
!!!PPR: Government Printing Office
!!!PDT: 1923
!!!PPP: Washington, DC, United States of America
!!!YEC: Electronic Copyright 2000 David Huron
!!!YER: August 2000
!!!YEN: United States of America
!!!ENC: David Huron
!!!RDT: August 18, 2000
!!!EEV: Release 1.0
!!!AIN: tom, vox
